assets/TfB-logo-green-white-background.svg

<svg width="60" height="60" viewBox="0 0 60 60" fill="none" xmlns="http://www.w3.org/2000/svg">
<circle cx="30" cy="30" r="30" fill="white"/>
<path d="M29.5106 59.9387L30.4895 59.9393C30.5276 59.9584 30.5274 59.9772 30.489 59.9956H29.511C29.4726 59.9769 29.4725 59.9579 29.5106 59.9387Z" fill="white"/>
<path d="M0 28.3586C0.103446 28.2207 0.00982247 28.0363 0.108935 27.8974C0.126776 28.1487 0.110274 28.4014 0.0599354 28.6478C0.0389517 28.6849 0.0189732 28.6844 0 28.6462V28.3586Z" fill="white"/>
<path d="M0.109604 32.0414C0.00980839 31.9025 0.103932 31.7176 0 31.5798V31.2922C0.0190437 31.2541 0.039755 31.2531 0.0621339 31.2894C0.10997 31.5366 0.125939 31.7896 0.109604 32.0414Z" fill="white"/>
<path d="M59.9513 30.3729L59.9515 29.5655C59.9688 29.5258 59.9852 29.5262 60.0008 29.5665V30.3718C59.9853 30.4121 59.9688 30.4125 59.9513 30.3729Z" fill="white"/>
<path d="M60.0008 29.5665L59.9762 29.565L59.9515 29.5655V29.2204C59.9679 29.2192 59.9844 29.2195 60.0008 29.2214L60.0008 29.5665Z" fill="white"/>
<path d="M59.9513 30.373C59.9678 30.3739 59.9844 30.3735 60.0008 30.3718V30.717L59.9759 30.7184L59.951 30.7179L59.9513 30.373Z" fill="white"/>
<path d="M28.4152 0.0486129C28.415 0.0324389 28.416 0.0162729 28.418 0.000244141H28.7056C28.7445 0.0197702 28.7432 0.0360891 28.7017 0.0492007L28.4152 0.0486129Z" fill="white"/>
<path d="M29.396 0.000244141C29.3086 0.0789363 29.2031 0.0532116 29.1017 0.0513141C29.0814 0.0371309 29.0756 0.0248353 29.0843 0.0144273C29.0871 0.0103724 29.0907 0.00700501 29.0948 0.00455665C29.099 0.00210829 29.1036 0.000637068 29.1083 0.000244141H29.396Z" fill="white"/>
<path d="M30.8985 0.0510536C30.7971 0.053286 30.6915 0.0788768 30.604 0.000244141H30.8916C30.9147 0.00862309 30.9233 0.0189219 30.9177 0.0312076C30.9117 0.0444234 30.9054 0.0510536 30.8985 0.0510536Z" fill="white"/>
<path d="M31.5819 0.000244141C31.5846 0.0160208 31.5857 0.0320489 31.5851 0.0480622L31.2982 0.0493868C31.2568 0.0361412 31.2555 0.0197702 31.2943 0.000273906L31.5819 0.000244141Z" fill="white"/>
<path d="M29.5106 59.9386C29.5112 59.9576 29.5113 59.9766 29.511 59.9956H29.2234L29.2233 59.9371C29.3183 59.9187 29.4158 59.9192 29.5106 59.9386Z" fill="white"/>
<path d="M30.489 59.9956C30.4888 59.9768 30.489 59.958 30.4895 59.9392C30.5842 59.9191 30.6817 59.9184 30.7767 59.9373L30.7766 59.9956H30.489Z" fill="white"/>
<path d="M29.1083 0.000244141C29.1067 0.0173592 29.1045 0.0343949 29.1017 0.0513513L28.874 0.0507336C28.838 0.0308057 28.8394 0.0139759 28.8782 0.000244141H29.1083Z" fill="white"/>
<path d="M30.8985 0.0510536C30.8958 0.0341866 30.8935 0.0172501 30.8916 0.000244141H31.1218C31.1602 0.0136386 31.1616 0.0303146 31.1262 0.0502723L30.8985 0.0510536Z" fill="white"/>
<path d="M0.059259 28.8203C0.0652272 28.9031 0.0767337 28.9874 0 29.0488V28.8187C0.0207583 28.7798 0.0405113 28.7803 0.059259 28.8203Z" fill="white"/>
<path d="M0 30.8895C0.0777131 30.9512 0.064903 31.0359 0.0582796 31.119C0.0392735 31.158 0.0198469 31.1582 0 31.1196V30.8895Z" fill="white"/>
<path d="M28.8782 0.000244141C28.8783 0.0171918 28.8769 0.0341116 28.8741 0.0507932L28.7017 0.0492156C28.704 0.0329974 28.7053 0.0166396 28.7056 0.000244141H28.8782Z" fill="white"/>
<path d="M31.1262 0.0502723C31.1235 0.0337409 31.122 0.0170158 31.1217 0.000244141H31.2943C31.2945 0.0167038 31.2958 0.0331301 31.2982 0.0493942L31.1262 0.0502723Z" fill="white"/>
<path d="M0.0602466 28.8202L0 28.8187V28.6462L0.0609344 28.6478L0.0602466 28.8202Z" fill="white"/>
<path d="M0 31.1196L0.0582725 31.119L0.0621268 31.2894L0 31.2922V31.1196Z" fill="white"/>
<path d="M59.9488 27.9591C59.9251 26.4944 59.7488 25.0369 59.423 23.6129C58.8592 20.9868 57.9478 18.4578 56.7157 16.1005C56.1154 14.9515 55.4447 13.8452 54.7078 12.7887C53.6887 11.3304 52.5525 9.9675 51.3119 8.71511C50.5866 7.9882 49.8255 7.30212 49.0318 6.6597C47.5754 5.46119 46.0147 4.41099 44.3708 3.52318C42.4273 2.46365 40.382 1.62696 38.2698 1.02743C36.0896 0.378342 33.8365 0.0425182 31.5713 0.0290212H30.9003C30.8017 0.0153292 30.6977 0.0585931 30.604 0H29.3957C29.3004 0.0586006 29.1958 0.0153366 29.0961 0.0290212H28.4236C28.1935 0.0279274 27.964 0.0514718 27.7356 0.0525731C26.5317 0.0697934 25.3318 0.203252 24.1509 0.45128C20.3954 1.18668 16.8016 2.65147 13.5521 4.77131C11.6372 6.0184 9.86532 7.49505 8.27159 9.17186C7.92873 9.53276 7.58202 9.89149 7.25778 10.2677C6.19134 11.5008 5.22214 12.8238 4.35983 14.2236C3.44228 15.709 2.65487 17.2796 2.0074 18.916C1.40136 20.4527 0.923037 22.0422 0.577835 23.6665C0.256779 25.0623 0.082286 26.4913 0.0575115 27.9274C0.0645451 28.1581 0.0548398 28.389 0.028481 28.618V28.7971C0.0169815 28.8809 0.0558697 28.9702 0 29.0485V30.8892C0.0558697 30.9692 0.0169815 31.0596 0.028481 31.1445V31.3241C0.0556594 31.5539 0.0653673 31.7855 0.0575115 32.0169C0.0482034 32.2184 0.0805175 32.4183 0.0832515 32.6188C0.128884 33.8434 0.293694 35.0598 0.57508 36.2488C1.25259 39.4477 2.44196 42.5011 4.09197 45.2776C5.69478 47.9689 7.68453 50.3803 9.98974 52.4252C12.8758 54.9967 16.1901 56.978 19.7632 58.2678C22.8131 59.4005 26.0237 59.975 29.2567 59.9667H30.7514C31.2756 59.9108 31.8035 59.9262 32.3288 59.9174C33.7618 59.868 35.1868 59.6722 36.584 59.3325C39.5099 58.6783 42.3311 57.5818 44.9607 56.0771C47.1733 54.8048 49.2299 53.251 51.0847 51.4504C51.84 50.7076 52.5558 49.9212 53.2289 49.0949C54.5758 47.4758 55.7494 45.7047 56.7283 43.8137C57.7165 41.9179 58.4987 39.9101 59.0599 37.8287C59.3989 36.5846 59.6531 35.3164 59.8207 34.0339C59.9415 32.9215 59.9918 31.8017 59.9713 30.6822V29.25C59.9674 28.8196 59.9505 28.3885 59.9488 27.9591ZM29.8712 52.7314C17.2376 52.6608 7.23803 42.3563 7.23529 29.9707C7.23309 17.526 17.3236 7.20517 30.0086 7.19968C42.7117 7.21009 52.7946 17.5589 52.7738 30.008C52.753 42.4286 42.6493 52.8026 29.8712 52.7314Z" fill="#00A64F"/>
<path d="M40.4395 33.7168C40.1923 32.7438 39.7253 31.8487 39.0785 31.1082C38.4317 30.3678 37.6244 29.8042 36.726 29.4658C36.0777 29.1977 35.405 29.0008 34.7186 28.8781C34.6403 28.8639 34.5669 28.8578 34.5636 28.7505C34.5608 28.6503 34.5893 28.6004 34.6989 28.5736C34.9497 28.5134 35.1974 28.4395 35.441 28.3524C36.3105 28.0846 37.1113 27.6126 37.7835 26.9716C38.4558 26.3307 38.9819 25.5374 39.3227 24.6512C39.8384 23.2449 39.9569 21.7108 39.6639 20.2348C39.4946 19.3483 39.1347 18.5148 38.612 17.7985C38.0893 17.0823 37.4178 16.5024 36.6493 16.1037C35.8694 15.662 35.0367 15.3335 34.1736 15.1272C32.5938 14.7555 30.9806 14.5647 29.362 14.5582C28.1734 14.5335 26.9854 14.573 25.798 14.6206C25.109 14.648 24.4199 14.6923 23.732 14.7455C22.6147 14.832 21.5023 14.9673 20.3932 15.1283C20.0344 15.1803 20.0333 15.1743 20.0333 15.5456V43.7238C20.0365 43.7908 20.0361 43.8579 20.0322 43.9248C20.0174 44.0722 20.0656 44.1472 20.225 44.179C20.7985 44.2934 21.3735 44.3942 21.9542 44.4588C23.2501 44.6028 24.5503 44.6872 25.8528 44.7354C26.9833 44.777 28.1148 44.7441 29.2459 44.7567C30.4624 44.7669 31.6769 44.6488 32.8712 44.404C34.4112 44.1234 35.8871 43.5379 37.2211 42.6783C38.8087 41.6996 39.9734 40.1072 40.4691 38.2378C40.8515 36.7564 40.8413 35.1925 40.4395 33.7168ZM25.5899 19.7495C25.5899 19.4669 25.5915 19.4686 25.8626 19.4396C27.1499 19.3096 28.4442 19.2754 29.7361 19.3371C30.5692 19.3471 31.3912 19.5407 32.1493 19.9057C32.6734 20.1372 33.1226 20.5242 33.4427 21.0198C33.7629 21.5155 33.9401 22.0984 33.9529 22.6982C33.9811 23.1097 33.9493 23.5232 33.8587 23.9245C33.7004 24.5698 33.3535 25.1461 32.8673 25.5713C32.0745 26.2714 31.1526 26.7898 30.16 27.0938C29.7504 27.197 29.3307 27.2485 28.9096 27.2472C27.8766 27.3052 26.842 27.3134 25.8079 27.3041C25.5943 27.3019 25.5904 27.2992 25.5904 27.0763C25.5888 25.8407 25.5886 24.6054 25.5899 23.3702V19.7495ZM34.7169 36.4245C34.6292 36.9754 34.4255 37.4986 34.1209 37.9554C33.8164 38.4123 33.4187 38.7912 32.9571 39.0642C32.2086 39.5291 31.3753 39.8216 30.5122 39.9225C29.7309 40.0114 28.944 40.0306 28.1597 39.98C27.48 39.9608 26.8003 39.934 26.1228 39.8671C25.5899 39.8146 25.5899 39.8184 25.5899 39.3025V32.0009C25.5899 31.9336 25.5921 31.8668 25.5899 31.7994C25.5882 31.7183 25.6211 31.674 25.7071 31.6767C25.7449 31.6784 25.7838 31.6756 25.8221 31.6762C27.0769 31.68 28.3328 31.6493 29.5876 31.7019C30.4589 31.7057 31.3253 31.8403 32.1608 32.1017C32.8584 32.3258 33.4884 32.7389 33.9879 33.3C34.4287 33.8254 34.6913 34.4907 34.7345 35.1911C34.7782 35.6014 34.7723 36.0158 34.7169 36.4245Z" fill="#00A64F"/>
</svg>

<svg xmlns="http://www.w3.org/2000/svg" width="60" height="60" fill="none" viewBox="0 0 60 60"><circle cx="30" cy="30" r="30" fill="#fff"/><path fill="#fff" d="M29.51 59.939h.98q.056.03-.001.057h-.978q-.057-.03 0-.057M0 28.359c.103-.138.01-.323.109-.462a2.8 2.8 0 0 1-.05.75q-.03.056-.059 0zM.11 32.041c-.1-.138-.006-.323-.11-.461v-.288q.029-.057.062-.003.072.373.048.752M59.951 30.373v-.808q.026-.06.05.002v.805q-.023.06-.05 0"/><path fill="#fff" d="m60 29.567-.024-.002h-.024v-.345a.3.3 0 0 1 .049.001zM59.951 30.373l.05-.001v.345l-.025.001h-.025zM28.415.049q0-.025.003-.049h.288q.057.03-.004.05zM29.396 0c-.087.079-.193.053-.294.051q-.03-.02-.018-.037l.01-.01.014-.004zM30.899.051c-.102.002-.207.028-.295-.05h.288q.034.012.026.03-.01.02-.02.02M31.582 0a.2.2 0 0 1 .003.048l-.287.001Q31.237.03 31.294 0zM29.51 59.939l.001.057h-.288v-.059a.7.7 0 0 1 .288.002M30.489 59.996v-.057a.7.7 0 0 1 .288-.002v.059z"/><path fill="#fff" d="m29.108 0-.006.051h-.228q-.054-.03.004-.05zM30.899.051l-.007-.05h.23q.057.02.004.05zM.06 28.82c.005.083.017.167-.06.229v-.23q.03-.06.06.001M0 30.89c.078.061.065.146.058.229q-.028.06-.058 0z"/><path fill="#fff" d="M28.878 0a.3.3 0 0 1-.004.05h-.172l.004-.05zM31.126.05 31.122 0h.172q0 .025.004.05zM.06 28.82 0 28.82v-.173l.06.002zM0 31.12l.058-.001.004.17-.062.003z"/><path fill="#00A64F" d="M59.949 27.96a21 21 0 0 0-.526-4.347 29.7 29.7 0 0 0-2.707-7.512 30 30 0 0 0-2.008-3.312 31 31 0 0 0-3.396-4.074 29 29 0 0 0-2.28-2.055 29 29 0 0 0-4.661-3.137 29.7 29.7 0 0 0-6.101-2.496A24 24 0 0 0 31.57.03h-.67c-.1-.014-.203.03-.297-.029h-1.208c-.096.059-.2.015-.3.029h-.672c-.23-.001-.46.022-.688.024A18.7 18.7 0 0 0 24.15.45a29.9 29.9 0 0 0-15.88 8.72c-.342.362-.689.72-1.013 1.097a30.5 30.5 0 0 0-2.898 3.956 30 30 0 0 0-2.353 4.692 30 30 0 0 0-1.43 4.75 20.6 20.6 0 0 0-.52 4.261 5 5 0 0 1-.029.691v.18c-.011.083.028.172-.028.25v1.841c.056.08.017.17.028.256v.18q.041.344.03.692c-.01.201.023.401.025.602.046 1.224.21 2.44.492 3.63a29.7 29.7 0 0 0 3.517 9.029 30.2 30.2 0 0 0 5.898 7.147 30 30 0 0 0 9.773 5.843 27 27 0 0 0 9.494 1.699h1.494c.525-.056 1.052-.04 1.578-.05a21 21 0 0 0 4.255-.584 30 30 0 0 0 8.377-3.256 31 31 0 0 0 6.124-4.627 29 29 0 0 0 2.144-2.355 29.4 29.4 0 0 0 3.5-5.281 29.7 29.7 0 0 0 2.33-5.985c.34-1.244.594-2.513.762-3.795q.18-1.67.15-3.352V29.25c-.004-.43-.02-.861-.022-1.29M29.87 52.73c-12.633-.07-22.633-10.375-22.636-22.76C7.233 17.526 17.324 7.205 30.01 7.2c12.703.01 22.786 10.359 22.765 22.808-.021 12.42-10.125 22.795-22.903 22.723"/><path fill="#00A64F" d="M40.44 33.717a6.3 6.3 0 0 0-1.361-2.609 5.9 5.9 0 0 0-2.353-1.642 9.7 9.7 0 0 0-2.007-.588c-.079-.014-.152-.02-.155-.128-.003-.1.025-.15.135-.176q.375-.09.742-.222c.87-.267 1.67-.74 2.342-1.38a6.35 6.35 0 0 0 1.54-2.32 8.2 8.2 0 0 0 .34-4.417 6.1 6.1 0 0 0-1.051-2.436 5.7 5.7 0 0 0-1.963-1.695 9.5 9.5 0 0 0-2.475-.977 21.4 21.4 0 0 0-4.812-.569c-1.189-.024-2.377.015-3.564.063q-1.034.043-2.066.124c-1.117.087-2.23.222-3.339.383-.359.052-.36.046-.36.418v28.178q.005.1 0 .2c-.016.148.033.223.192.255a20 20 0 0 0 1.73.28c1.295.144 2.595.228 3.898.276 1.13.042 2.262.01 3.393.022 1.216.01 2.43-.108 3.625-.353 1.54-.28 3.016-.866 4.35-1.726 1.588-.978 2.752-2.57 3.248-4.44a8.84 8.84 0 0 0-.03-4.521M25.59 19.75c0-.283.002-.281.273-.31a26 26 0 0 1 3.873-.103c.833.01 1.655.204 2.413.569.524.231.974.618 1.294 1.114.32.495.497 1.078.51 1.678.028.412-.004.825-.094 1.226a3.2 3.2 0 0 1-.992 1.647 7.3 7.3 0 0 1-2.707 1.523c-.41.103-.83.154-1.25.153a48 48 0 0 1-3.102.057c-.214-.002-.218-.005-.218-.228V19.75m9.127 16.675a3.85 3.85 0 0 1-.596 1.53 3.6 3.6 0 0 1-1.164 1.11 5.9 5.9 0 0 1-2.445.858c-.781.088-1.568.108-2.352.057-.68-.02-1.36-.046-2.037-.113-.533-.052-.533-.049-.533-.564V32q.002-.1 0-.202c-.002-.08.031-.125.117-.122h.115c1.255.003 2.51-.028 3.766.025a8.7 8.7 0 0 1 2.573.4 4.15 4.15 0 0 1 1.827 1.198c.44.525.703 1.19.746 1.891.044.41.038.825-.017 1.233"/></svg>
